X:1
T:James Gibb editions
T:O felix anima - Carissimi
T:#
%%score [ 1 2 3 ]
L:1/8
Q:1/4=160
M:3/2
K:C
V:1 treble nm="Alto" snm="A"
V:2 treble-8 nm="Tenor" snm="T"
V:3 bass nm="Bass" snm="B"
V:1
"^Giacomo Carissimi\n(1604-1674)""^O felix anima" z4!p! E8 | A4 G6 F2 | E6 E2 E4 | G4 F6 E2 | %4
w: O,|O fe- lix|a- ni- ma|quae cae- lum|
 D6 D2 D4 | G4 !>!F8 | E8 z4 |[M:3/2] G4 F6 E2 | D6 D2 D4 | E4 C8 | B,8 z4 | E8 z4 | ^F8 z4 | %13
w: pos- si- des,|O fe-|lix,|O fe- lix|a- ni- ma,|O fe-|lix,|O,|O|
"^cresc." ^F4 ^G4 A4 | (A4 ^G6) A2 | A8 z4 | E4 F4 D4 | E6 E2 E4 | D4 E4 C4 | F6 F2 F4 | E4 F4 D4 | %21
w: O fe- lix|a\- * ni-|ma|ad cae- li|nu- mi- na,|ad Chri- sti|li- mi- ni,|ad De- i|
 E6 F2 G4 | D4 D8 | C4"^dim." (E8- | E4 D2 C2) B,4 |!pp! E8 z4 | ^F8 z4 | ^F4 ^G4 A4 | %28
w: li- mi- na|tri- um-|phas, O||O,|O,|O fe- lix|
 (A4 ^G6) A2 | !fermata!A8 z4 || E12 | A4 G6 F2 | E6 E2 E4 | G4 F6 E2 | D6 D2 D4 | G4 F8 | E8 z4 | %37
w: a\- * ni-|ma;|O,|O fe- lix|a- ni- ma|quae cae- lum|pos- si- des,|O fe-|lix,|
 G4 F6 E2 | D6 D2 D4 | E4 C8 | B,8 z4 | E8 z4 | ^F8 z4 | ^F4 ^G4 A4 | (A4 ^G6) A2 | A8 z4 | %46
w: O fe- lix|a- ni- ma,|O fe-|lix,|O,|O,|O fe- lix|a\- * ni-|ma,|
 E4 F4 D4 | E6 E2 E4 | D4 E4 C4 | F6 F2 F4 | E4 F4 D4 | E6 F2 G4 | D4 D8 | C4"^dim." (E8- | %54
w: ad cae- li|nu- mi- na,|ad Chri- sti|li- mi- ni,|ad De- i|li- mi- na|tri- um-|phans, O|
 E4 D2 C2 B,4) |!pp! E8 z4 | ^F8 z4 |"^cresc." ^F4 ^G4 A4 |!f! (A4 ^G6) A2 | !fermata!A12 | %60
w: |O,|O,|O fe- lix|a\- * ni-|ma,|
!pp! (A4 ^G6) A2 | !fermata!A12 |] %62
w: a\- * ni-|ma.|
V:2
 z4!p! c8 | f4 e6 d2 | c6 c2 c4 | e4 d6 c2 | B6 B2 B4 | e4 !>!B8 | c8 z4 | %7
w: O,|O fe- lix|a- ni- ma|quae cae- lum|pos- si- des,|O fe-|lix,|
[M:3/2][K:treble-8] c4 d6 c2 | B6 B2 B4 | B4 A8 | ^G8 z4 | A8 z4 | A8 z4 |"^cresc." A4 B4 c4 | %14
w: O fe- lix|a- ni- ma,|O fe-|lix,|O,|O,|O fe- lix|
 B8- B2 c2 | c8 z4 | c4 d4 B4 | c6 c2 c4 | B4 c4 A4 | A6 A2 A4 | c4 d4 B4 | c6 c2 c4 | c4 B8 | %23
w: a\- * ni-|ma|ad cae- li|nu- mi- na,|ad Chri- sti|li- mi- ni,|ad De- i|li- mi- na|tri- um-|
 c4"^dim." (c8- | c4 B2 A2 ^G4) |!pp! A8 z4 | A8 z4 | A4 B4 c4 | B8- B2 c2 | !fermata!c8 z4 || %30
w: phas, O||O,|O,|O fe- lix|a\- * ni-|ma.|
 c12 | f4 e6 d2 | c6 c2 c4 | e4 d6 c2 | B6 B2 B4 | e4 B8 | c8 z4 | c4 d6 c2 | B6 B2 B4 | B4 A8 | %40
w: O,|O fe- lix|a- ni- ma|quae cae- lum|pos- si- des,|O fe-|lix,|O fe- lix|a- ni- ma,|O fe-|
 ^G8 z4 | A8 z4 | A8 z4 | A4 B4 c4 | B8- B2 c2 | c8 z4 | c4 d4 B4 | c6 c2 c4 | B4 c4 A4 | %49
w: lix,|O,|O,|O fe- lix|a\- * ni-|ma,|ad cae- li|nu- mi- na,|ad Chri- sti|
 A6 A2 A4 | c4 d4 B4 | c6 c2 c4 | c4 B8 | c4"^dim." (c8- | c4 B2 A2 ^G4) |!pp! A8 z4 | A8 z4 | %57
w: li- mi- ni,|ad De- i|li- mi- na|tri- um-|phans, O||O,|O,|
"^cresc." A4 B4 c4 |!f! B8- B2 c2 | !fermata!c12 |!pp! B8- B2 ^c2 | !fermata!^c12 |] %62
w: O fe- lix|a\- * ni-|ma,|a\- * ni-|ma.|
V:3
 z4!p! A,8 | F,4 G,6 G,2 | A,6 A,2 A,4 | E,4 F,6 F,2 | G,6 G,2 G,4 | E,4 !>!D,8 | C,8 z4 | %7
w: O,|O fe- lix|a- ni- ma|quae cae- lum|pos- si- des,|O fe-|lix,|
[M:3/2] E,4 F,6 F,2 | G,6 G,2 G,4 | ^G,4 A,8 | E,8 z4 | C,8 z4 | D,8 z4 |"^cresc." D,4 D,4 ^D,4 | %14
w: O fe- lix|a- ni- ma,|O fe-|lix,|O,|O,|O fe- lix|
 E,8- E,2 A,,2 | A,,8 z4 | A,4 F,4 G,4 | C,6 C,2 C,4 | G,4 C,4 F,4 | D,6 D,2 D,4 | A,4 F,4 G,4 | %21
w: a\- * ni-|ma|ad cae- li|nu- mi- na,|ad Chri- sti|li- mi- ni,|ad De- i|
 C,6 D,2 E,4 | F,4 G,8 | C,4 z4 z4 |"^dim." (D,8 E,4) |!pp! C,8 z4 | D,8 z4 | D,4 D,4 ^D,4 | %28
w: li- mi- na|tri- um-|phans,|O *|O,|O,|O fe- lix|
 E,8- E,2 A,,2 | !fermata!A,,8 z4 || A,12 | F,4 G,6 G,2 | A,6 A,2 A,4 | E,4 F,6 F,2 | G,6 G,2 G,4 | %35
w: a\- * ni-|ma.|O,|O fe- lix|a- ni- ma|quae cae- lum|pos- si- des,|
 E,4 D,8 | C,8 z4 | E,4 F,6 F,2 | G,6 G,2 G,4 | ^G,4 A,8 | E,8 z4 | C,8 z4 | D,8 z4 | %43
w: O fe-|lix,|O fe- lix|a- ni- ma,|O fe-|lix,|O,|O,|
 D,4 D,4 ^D,4 | E,8- E,2 A,,2 | A,,8 z4 | A,4 F,4 G,4 | C,6 C,2 C,4 | G,4 C,4 F,4 | D,6 D,2 D,4 | %50
w: O fe- lix|a\- * ni-|ma,|ad cae- li|nu- mi- na,|ad Chri- sti|li- mi- ni,|
 A,4 F,4 G,4 | C,6 D,2 E,4 | F,4 G,8 | C,4 z4 z4 |"^dim." (D,8 E,4) |!pp! C,8 z4 | D,8 z4 | %57
w: ad De- i|li- mi- na|tri- um-|phans,|O, *|O,|O,|
"^cresc." D,4 D,4 ^D,4 |!f! E,8- E,2 A,,2 | !fermata!A,,12 |!pp! E,8- E,2 A,,2 | !fermata!A,,12 |] %62
w: O fe- lix|a\- * ni-|ma,|a\- * ni-|ma.|

